usr/share/icons/biglinux-icons-material/24/actions/align-horizontal-node.svg

<svg xmlns="http://www.w3.org/2000/svg" viewBox="0 0 24 24"><path d="M4 4v4h4V4H4zm8 0v1h1V4h-1zM5 5h2v2H5V5zm7 2v1h1V7h-1zm0 3v1h1v-1h-1zm5 0v4h4v-4h-4zm1 1h2v2h-2v-2zm-6 2v1h1v-1h-1zm-8 3v4h4v-4H4zm8 0v1h1v-1h-1zm-7 1h2v2H5v-2zm7 2v1h1v-1h-1z" style="fill:currentColor;fill-opacity:1;stroke:none;color:#dedede"/><path d="M9 4v4l3-2-3-2zm7 6-3 2 3 2v-4zm-7 6v4l3-2-3-2z" style="fill:currentColor;fill-opacity:1;stroke:none;color:#3daee9"/></svg>

<svg xmlns="http://www.w3.org/2000/svg" viewBox="0 0 24 24">
  <defs id="defs3051">
    <style type="text/css" id="current-color-scheme">
      .ColorScheme-Text {
        color:#dedede;
      }
      .ColorScheme-Highlight {
        color:#3daee9;
      }
      </style>
  </defs>
 <path 
     style="fill:currentColor;fill-opacity:1;stroke:none" 
     d="M 4 4 L 4 8 L 8 8 L 8 4 L 4 4 z M 12 4 L 12 5 L 13 5 L 13 4 L 12 4 z M 5 5 L 7 5 L 7 7 L 5 7 L 5 5 z M 12 7 L 12 8 L 13 8 L 13 7 L 12 7 z M 12 10 L 12 11 L 13 11 L 13 10 L 12 10 z M 17 10 L 17 14 L 21 14 L 21 10 L 17 10 z M 18 11 L 20 11 L 20 13 L 18 13 L 18 11 z M 12 13 L 12 14 L 13 14 L 13 13 L 12 13 z M 4 16 L 4 20 L 8 20 L 8 16 L 4 16 z M 12 16 L 12 17 L 13 17 L 13 16 L 12 16 z M 5 17 L 7 17 L 7 19 L 5 19 L 5 17 z M 12 19 L 12 20 L 13 20 L 13 19 L 12 19 z "
     class="ColorScheme-Text"
     />
 <path 
     style="fill:currentColor;fill-opacity:1;stroke:none" 
     d="M 9 4 L 9 8 L 12 6 L 9 4 z M 16 10 L 13 12 L 16 14 L 16 10 z M 9 16 L 9 20 L 12 18 L 9 16 z "
     class="ColorScheme-Highlight"
     />
</svg>
